modules/zondicons/icons/brightness-up.svg

<?xml version="1.0" encoding="UTF-8" standalone="no"?>
<svg width="20px" height="20px" viewBox="0 0 20 20" version="1.1" xmlns="http://www.w3.org/2000/svg" xmlns:xlink="http://www.w3.org/1999/xlink">
    <!-- Generator: Sketch 3.7.2 (28276) - http://www.bohemiancoding.com/sketch -->
    <title>brightness-up</title>
    <desc>Created with Sketch.</desc>
    <defs></defs>
    <g id="Page-1" stroke="none" stroke-width="1" fill="none" fill-rule="evenodd">
        <g id="brightness-up" fill="#000000">
            <path d="M10,14 C12.209139,14 14,12.209139 14,10 C14,7.790861 12.209139,6 10,6 C7.790861,6 6,7.790861 6,10 C6,12.209139 7.790861,14 10,14 Z M9,1.0093689 C9,0.451909848 9.44386482,0 10,0 C10.5522847,0 11,0.443353176 11,1.0093689 L11,2.9906311 C11,3.54809015 10.5561352,4 10,4 C9.44771525,4 9,3.55664682 9,2.9906311 L9,1.0093689 Z M15.6502294,2.935557 C16.0444125,2.54137392 16.6778209,2.53568523 17.0710678,2.92893219 C17.4615921,3.31945648 17.4646766,3.94953701 17.064443,4.34977056 L15.6634791,5.7507345 C15.269296,6.14491758 14.6358876,6.15060627 14.2426407,5.75735931 C13.8521164,5.36683502 13.8490319,4.73675449 14.2492655,4.33652094 L15.6502294,2.935557 Z M18.9906311,9 C19.5480902,9 20,9.44386482 20,10 C20,10.5522847 19.5566468,11 18.9906311,11 L17.0093689,11 C16.4519098,11 16,10.5561352 16,10 C16,9.44771525 16.4433532,9 17.0093689,9 L18.9906311,9 Z M17.064443,15.6502294 C17.4586261,16.0444125 17.4643148,16.6778209 17.0710678,17.0710678 C16.6805435,17.4615921 16.050463,17.4646766 15.6502294,17.064443 L14.2492655,15.6634791 C13.8550824,15.269296 13.8493937,14.6358876 14.2426407,14.2426407 C14.633165,13.8521164 15.2632455,13.8490319 15.6634791,14.2492655 L17.064443,15.6502294 Z M11,18.9906311 C11,19.5480902 10.5561352,20 10,20 C9.44771525,20 9,19.5566468 9,18.9906311 L9,17.0093689 C9,16.4519098 9.44386482,16 10,16 C10.5522847,16 11,16.4433532 11,17.0093689 L11,18.9906311 Z M4.34977056,17.064443 C3.95558749,17.4586261 3.32217914,17.4643148 2.92893219,17.0710678 C2.5384079,16.6805435 2.53532344,16.050463 2.935557,15.6502294 L4.33652094,14.2492655 C4.73070401,13.8550824 5.36411236,13.8493937 5.75735931,14.2426407 C6.1478836,14.633165 6.15096806,15.2632455 5.7507345,15.6634791 L4.34977056,17.064443 Z M1.0093689,11 C0.451909848,11 1.4050796e-16,10.5561352 3.83475851e-17,10 C-6.31054776e-17,9.44771525 0.443353176,9 1.0093689,9 L2.9906311,9 C3.54809015,9 4,9.44386482 4,10 C4,10.5522847 3.55664682,11 2.9906311,11 L1.0093689,11 Z M2.935557,4.34977056 C2.54137392,3.95558749 2.53568523,3.32217914 2.92893219,2.92893219 C3.31945648,2.5384079 3.94953701,2.53532344 4.34977056,2.935557 L5.7507345,4.33652094 C6.14491758,4.73070401 6.15060627,5.36411236 5.75735931,5.75735931 C5.36683502,6.1478836 4.73675449,6.15096806 4.33652094,5.7507345 L2.935557,4.34977056 Z" id="Combined-Shape"></path>
        </g>
    </g>
</svg>

<svg width="20" height="20" viewBox="0 0 20 20" xmlns="http://www.w3.org/2000/svg"><path d="M10 14a4 4 0 1 0 0-8 4 4 0 0 0 0 8zM9 1.01a1 1 0 1 1 2 0v1.98a1 1 0 1 1-2 0V1.01zm6.65 1.926a1 1 0 1 1 1.414 1.414l-1.4 1.4a1 1 0 1 1-1.414-1.414l1.4-1.4zM18.99 9a1 1 0 1 1 0 2h-1.98a1 1 0 1 1 0-2h1.98zm-1.926 6.65a1 1 0 1 1-1.414 1.414l-1.4-1.4a1 1 0 1 1 1.414-1.414l1.4 1.4zM11 18.99a1 1 0 1 1-2 0v-1.98a1 1 0 1 1 2 0v1.98zm-6.65-1.926a1 1 0 1 1-1.414-1.414l1.4-1.4a1 1 0 1 1 1.414 1.414l-1.4 1.4zM1.01 11a1 1 0 1 1 0-2h1.98a1 1 0 1 1 0 2H1.01zm1.926-6.65A1 1 0 1 1 4.35 2.936l1.4 1.4A1 1 0 1 1 4.337 5.75l-1.4-1.4z" fill="#000" fill-rule="evenodd"/></svg>
